assets/sonr-icons/folder-music.svg

<svg xmlns="http://www.w3.org/2000/svg" width="24" height="24" fill="none" viewBox="0 0 24 24"><path fill="#000" d="M10.224 6.05595C10.021 6.00695 9.79298 5.99995 9.01098 5.99995H7.79898C6.94298 5.99995 6.36098 6.00095 5.90998 6.03795C5.47098 6.07395 5.24798 6.13895 5.09098 6.21895C4.71398 6.41095 4.40798 6.71695 4.21698 7.09295C4.13798 7.24995 4.07198 7.47295 4.03598 7.91195C3.99898 8.36195 3.99898 8.94495 3.99898 9.80095V14.2009C3.99898 15.0569 3.99998 15.6389 4.03598 16.0899C4.07198 16.5289 4.13698 16.7519 4.21698 16.9089C4.40898 17.2859 4.71498 17.5919 5.09098 17.7829C5.24798 17.8629 5.47098 17.9279 5.90998 17.9639C6.35998 18.0009 6.94298 18.0009 7.79898 18.0009H16.199C17.056 18.0009 17.638 17.9999 18.088 17.9639C18.527 17.9279 18.75 17.8629 18.907 17.7829C19.284 17.5909 19.59 17.2849 19.781 16.9089C19.861 16.7519 19.926 16.5289 19.962 16.0899C19.999 15.6399 20 15.0569 20 14.2009V11.8009C20 10.9449 19.999 10.3619 19.962 9.91195C19.926 9.47295 19.861 9.24995 19.781 9.09295C19.589 8.71595 19.283 8.40995 18.907 8.21895C18.75 8.13995 18.527 8.07395 18.088 8.03795C17.638 8.00095 17.055 8.00095 16.199 8.00095H12.999C12.734 8.00095 12.479 7.89595 12.292 7.70795L11.698 7.11395C11.145 6.56095 10.98 6.40495 10.802 6.29595C10.624 6.18695 10.428 6.10495 10.224 6.05595ZM9.11398 3.99995C9.74898 3.99995 10.229 3.99895 10.691 4.10995C11.099 4.20795 11.49 4.36995 11.847 4.58895C12.253 4.83795 12.592 5.17695 13.04 5.62595C13.064 5.64995 13.088 5.67395 13.112 5.69795L13.414 5.99895H16.241C17.046 5.99895 17.71 5.99895 18.252 6.04295C18.814 6.08895 19.33 6.18795 19.816 6.43395C20.568 6.81695 21.18 7.42895 21.564 8.18195C21.811 8.66695 21.91 9.18395 21.955 9.74695C21.999 10.2879 21.999 10.9519 21.999 11.7579V14.2399C21.999 15.0449 21.999 15.7089 21.955 16.2509C21.909 16.8129 21.81 17.3289 21.564 17.8149C21.181 18.5679 20.569 19.1789 19.816 19.5629C19.331 19.8099 18.814 19.9089 18.252 19.9539C17.71 19.9979 17.047 19.9979 16.241 19.9979H7.75898C6.95398 19.9979 6.28998 19.9979 5.74798 19.9539C5.18598 19.9079 4.66998 19.8089 4.18398 19.5629C3.43098 19.1799 2.81998 18.5679 2.43598 17.8149C2.18798 17.3299 2.08998 16.8129 2.04498 16.2509C2.00098 15.7099 2.00098 15.0459 2.00098 14.2399V9.75695C2.00098 8.95195 2.00098 8.28795 2.04498 7.74595C2.09098 7.18395 2.18998 6.66695 2.43698 6.18095C2.81998 5.42795 3.43198 4.81695 4.18498 4.43295C4.66998 4.18495 5.18698 4.08695 5.74898 4.04095C6.29098 3.99695 6.95398 3.99695 7.75998 3.99695H9.01298C9.04698 3.99695 9.08098 3.99695 9.11498 3.99695L9.11398 3.99995Z"/><path fill="#000" d="M11 10.37C11 9.69298 11.659 9.21098 12.304 9.41798L14.304 10.058C14.718 10.191 14.999 10.575 14.999 11.01V11.632C14.999 12.309 14.34 12.791 13.695 12.585L13 12.362V14.001C13 15.106 12.105 16.001 11 16.001C9.895 16.001 9 15.106 9 14.001C9 12.896 9.895 12.001 11 12.001V10.371V10.37Z"/></svg>

<svg xmlns="http://www.w3.org/2000/svg" width="24" height="24" fill="none"><path fill="currentColor" d="M10.224 6.056C10.021 6.006 9.793 6 9.011 6H7.799c-.856 0-1.438 0-1.889.038-.439.036-.662.101-.819.181a2 2 0 0 0-.874.874c-.079.157-.145.38-.181.819-.037.45-.037 1.033-.037 1.889v4.4c0 .856.001 1.438.037 1.889.036.439.101.662.181.819.192.377.498.683.874.874.157.08.38.145.819.18.45.038 1.033.038 1.889.038h8.4c.857 0 1.439-.001 1.889-.037.439-.036.662-.101.819-.181.377-.192.683-.498.874-.874.08-.157.145-.38.181-.82.037-.45.038-1.032.038-1.888v-2.4c0-.856-.001-1.44-.038-1.89-.036-.438-.101-.661-.181-.818a2 2 0 0 0-.874-.874c-.157-.079-.38-.145-.819-.181C17.638 8 17.055 8 16.199 8h-3.2a1 1 0 0 1-.707-.293l-.594-.594c-.553-.553-.718-.709-.896-.818a2 2 0 0 0-.578-.24M9.114 4c.635 0 1.115-.001 1.577.11a4 4 0 0 1 1.156.479c.406.249.745.588 1.193 1.037l.072.072.302.3h2.827c.805 0 1.469 0 2.011.045.562.046 1.078.145 1.564.391a4 4 0 0 1 1.748 1.748c.247.485.346 1.002.391 1.565.044.54.044 1.205.044 2.01v2.483c0 .805 0 1.469-.044 2.01-.046.563-.145 1.079-.391 1.565a4 4 0 0 1-1.748 1.748c-.485.247-1.002.346-1.564.39-.542.045-1.205.045-2.011.045H7.759c-.805 0-1.469 0-2.011-.044-.562-.046-1.078-.145-1.564-.391a4 4 0 0 1-1.748-1.748c-.248-.485-.346-1.002-.391-1.564-.044-.541-.044-1.205-.044-2.011V9.757c0-.805 0-1.469.044-2.011.046-.562.145-1.08.392-1.565a4 4 0 0 1 1.748-1.748c.485-.248 1.002-.346 1.564-.392.542-.044 1.205-.044 2.011-.044h1.355z"/><path fill="currentColor" d="M11 10.37a1 1 0 0 1 1.304-.952l2 .64a1 1 0 0 1 .695.952v.622a1 1 0 0 1-1.304.953L13 12.362v1.639a2 2 0 1 1-2-2V10.37"/></svg>
